images/phone.svg

<svg width="14" height="14" viewBox="0 0 14 14" fill="none" xmlns="http://www.w3.org/2000/svg">
<path d="M8.84618 9.28664L9.41585 8.71312C9.94482 8.18057 10.8047 8.18057 11.3337 8.71312L12.6033 9.99125C13.1322 10.5238 13.1322 11.3895 12.6033 11.9221L12.3591 12.1679C12.3591 12.1679 9.30191 15.1147 4.13965 9.91751C-1.22064 4.52099 1.9071 1.64521 1.9071 1.64521L2.15124 1.39941C2.68022 0.866862 3.54015 0.866862 4.06912 1.39941L5.33866 2.67754C5.86764 3.21009 5.86764 4.07583 5.33866 4.60838L4.769 5.1819C4.45161 5.50143 4.45161 6.02032 4.769 6.33985L7.696 9.28664C8.01338 9.60617 8.5288 9.60617 8.84618 9.28664Z" stroke="black" stroke-miterlimit="10"/>
</svg>

<svg width="14" height="14" fill="none" xmlns="http://www.w3.org/2000/svg"><path d="M8.846 9.287l.57-.574a1.35 1.35 0 011.918 0l1.27 1.278a1.373 1.373 0 010 1.931l-.245.246s-3.057 2.947-8.22-2.25C-1.22 4.52 1.908 1.645 1.908 1.645l.244-.246a1.35 1.35 0 011.918 0l1.27 1.279a1.373 1.373 0 010 1.93l-.57.574a.823.823 0 000 1.158l2.927 2.947a.81.81 0 001.15 0z" stroke="#000" stroke-miterlimit="10"/></svg>
